public/Icons/whatsUp.svg

<svg width="24" height="24" viewBox="0 0 24 24" fill="none" xmlns="http://www.w3.org/2000/svg">
<path fill-rule="evenodd" clip-rule="evenodd" d="M8.725 17.6667C9.78333 18.2917 10.9917 18.625 12.225 18.625C16.0083 18.625 19.0917 15.55 19.075 11.7667C19.0784 10.8643 18.9026 9.97021 18.5578 9.13624C18.2131 8.30227 17.7062 7.54502 17.0667 6.90838C15.775 5.60838 14.05 4.89172 12.2167 4.89172C8.43333 4.89172 5.35 7.97505 5.35 11.7584C5.35095 13.0494 5.71479 14.3142 6.4 15.4084L6.56667 15.6667L5.875 18.2L8.475 17.5167L8.725 17.6667ZM15.7173 13.3584C15.8412 13.4187 15.9406 13.4672 15.9917 13.4917C16.0329 13.5115 16.0708 13.529 16.1056 13.545C16.2468 13.6102 16.3365 13.6515 16.3833 13.725C16.4417 13.8167 16.4417 14.225 16.2667 14.7084C16.1 15.1917 15.275 15.6334 14.875 15.6917C14.5167 15.7417 14.0667 15.7667 13.575 15.6084C13.275 15.5167 12.8917 15.3917 12.4 15.175C10.4242 14.3226 9.09579 12.3809 8.89544 12.0881C8.88622 12.0746 8.8794 12.0646 8.875 12.0584L8.87338 12.0562C8.76725 11.9148 8.03333 10.9364 8.03333 9.92505C8.03333 8.98704 8.48733 8.48885 8.70157 8.25375C8.71953 8.23403 8.73582 8.21617 8.75 8.20005C8.94167 7.99172 9.15833 7.94172 9.3 7.94172H9.7C9.71447 7.94268 9.72962 7.94286 9.74534 7.94305C9.86541 7.9445 10.0193 7.94636 10.1667 8.30005C10.3333 8.71672 10.75 9.73338 10.8 9.83338C10.85 9.93338 10.8833 10.05 10.8167 10.1917C10.811 10.2031 10.8055 10.2142 10.8001 10.225C10.7425 10.3409 10.6998 10.4267 10.6083 10.5334C10.5764 10.5706 10.5428 10.6113 10.5088 10.6523C10.4364 10.7399 10.3624 10.8293 10.3 10.8917C10.1917 11 10.0917 11.1084 10.2083 11.3167C10.3333 11.525 10.7417 12.2 11.3583 12.75C12.0281 13.3486 12.6126 13.5998 12.8982 13.7226C12.9466 13.7434 12.9865 13.7606 13.0167 13.775C13.225 13.8834 13.35 13.8667 13.4667 13.725C13.5833 13.5917 13.975 13.125 14.1167 12.9167C14.2583 12.7167 14.3917 12.75 14.5833 12.8167C14.7218 12.8733 15.3354 13.1723 15.7173 13.3584Z" fill="#F8F7F3"/>
<path fill-rule="evenodd" clip-rule="evenodd" d="M4 0C1.79086 0 0 1.79086 0 4V20C0 22.2091 1.79086 24 4 24H20C22.2091 24 24 22.2091 24 20V4C24 1.79086 22.2091 0 20 0H4ZM15.3897 4.12509C16.3927 4.54144 17.3027 5.15332 18.0667 5.92505C19.625 7.48338 20.4833 9.55838 20.4833 11.7667C20.4833 16.3167 16.775 20.025 12.225 20.025C10.8417 20.025 9.48333 19.675 8.275 19.0167L3.9 20.1667L5.06667 15.8834C4.35 14.6334 3.96667 13.2167 3.96667 11.7584C3.96667 7.20838 7.675 3.50005 12.225 3.50005C13.3109 3.49627 14.3867 3.70875 15.3897 4.12509Z" fill="#F8F7F3"/>
</svg>

<svg width="24" height="24" fill="none" xmlns="http://www.w3.org/2000/svg"><path fill-rule="evenodd" clip-rule="evenodd" d="M8.725 17.667a6.885 6.885 0 0 0 3.5.958c3.783 0 6.867-3.075 6.85-6.858a6.817 6.817 0 0 0-2.008-4.859 6.794 6.794 0 0 0-4.85-2.016c-3.784 0-6.867 3.083-6.867 6.866a6.887 6.887 0 0 0 1.05 3.65l.167.259-.692 2.533 2.6-.683.25.15Zm6.992-4.309.275.134c.04.02.079.037.114.053.14.065.23.107.277.18.059.092.059.5-.116.983-.167.484-.992.925-1.392.984-.358.05-.808.075-1.3-.084a10.09 10.09 0 0 1-1.175-.433c-1.976-.852-3.304-2.794-3.505-3.087l-.02-.03-.002-.002c-.106-.141-.84-1.12-.84-2.13 0-.939.454-1.437.669-1.672L8.75 8.2a.749.749 0 0 1 .55-.258h.4l.045.001c.12.002.274.003.422.357.166.417.583 1.433.633 1.533.05.1.083.217.017.359l-.017.033c-.058.116-.1.202-.192.308l-.1.12a3.714 3.714 0 0 1-.208.239c-.108.108-.208.216-.092.425.125.208.534.883 1.15 1.433.67.599 1.255.85 1.54.973.049.02.088.038.119.052.208.108.333.092.45-.05.116-.133.508-.6.65-.808.141-.2.275-.167.466-.1.139.056.752.355 1.134.541Z" fill="#F8F7F3"/><path fill-rule="evenodd" clip-rule="evenodd" d="M4 0a4 4 0 0 0-4 4v16a4 4 0 0 0 4 4h16a4 4 0 0 0 4-4V4a4 4 0 0 0-4-4H4Zm11.39 4.125a8.18 8.18 0 0 1 2.677 1.8 8.207 8.207 0 0 1 2.416 5.842c0 4.55-3.708 8.258-8.258 8.258a8.26 8.26 0 0 1-3.95-1.008L3.9 20.167l1.167-4.284a8.282 8.282 0 0 1-1.1-4.125c0-4.55 3.708-8.258 8.258-8.258a8.18 8.18 0 0 1 3.165.625Z" fill="#F8F7F3"/></svg>
